src/assets/images/teach.svg

<svg fill="none" height="50" viewBox="0 0 47 50" width="47" xmlns="http://www.w3.org/2000/svg"><g stroke="#000" stroke-linecap="round" stroke-linejoin="round" stroke-width="2"><path d="m39.41 39.4098c3.1467-3.1467 5.2896-7.1558 6.1577-11.5204.8681-4.3645.4226-8.8885-1.2804-12.9998-1.703-4.1114-4.5869-7.62537-8.287-10.09769s-8.0502-3.79191-12.5003-3.79191-8.8002 1.31959-12.5003 3.79191c-3.70009 2.47232-6.58397 5.98629-8.28695 10.09769-1.70298 4.1113-2.148574 8.6353-1.28043 12.9998.86815 4.3646 3.01104 8.3737 6.15769 11.5204"/><path d="m22.9152 48.4998h1.17c1.2188.0003 2.3959-.4447 3.3097-1.2513.9139-.8066 1.5016-1.9192 1.6527-3.1287l1.25-10c.088-.7036.0252-1.4178-.184-2.0953-.2092-.6774-.5601-1.3027-1.0294-1.8342s-1.0463-.9571-1.6927-1.2485c-.6463-.2915-1.3473-.4421-2.0563-.442h-3.67c-.7091-.0001-1.4101.1505-2.0564.442-.6464.2914-1.2234.717-1.6927 1.2485s-.8202 1.1568-1.0294 1.8342c-.2092.6775-.272 1.3917-.184 2.0953l1.25 10c.1511 1.2095.7388 2.3221 1.6527 3.1287.9138.8066 2.0909 1.2516 3.3098 1.2513z"/><path d="m23.5 20.9998c2.7614 0 5-2.2386 5-5s-2.2386-5-5-5-5 2.2386-5 5 2.2386 5 5 5z"/></g></svg>

<svg width="47" height="50" viewBox="0 0 47 50" fill="none" xmlns="http://www.w3.org/2000/svg">
<path d="M39.41 39.4098C42.5567 36.2631 44.6996 32.254 45.5677 27.8894C46.4358 23.5249 45.9903 19.0009 44.2873 14.8896C42.5843 10.7782 39.7004 7.26423 36.0003 4.79191C32.3002 2.31959 27.9501 1 23.5 1C19.0499 1 14.6998 2.31959 10.9997 4.79191C7.29961 7.26423 4.41573 10.7782 2.71275 14.8896C1.00977 19.0009 0.564176 23.5249 1.43232 27.8894C2.30047 32.254 4.44336 36.2631 7.59001 39.4098" stroke="black" stroke-width="2" stroke-linecap="round" stroke-linejoin="round"/>
<path d="M22.9152 48.4998H24.0852C25.304 48.5001 26.4811 48.0551 27.3949 47.2485C28.3088 46.4419 28.8965 45.3293 29.0476 44.1198L30.2976 34.1198C30.3856 33.4162 30.3228 32.702 30.1136 32.0245C29.9044 31.3471 29.5535 30.7218 29.0842 30.1903C28.6149 29.6588 28.0379 29.2332 27.3915 28.9418C26.7452 28.6503 26.0442 28.4997 25.3352 28.4998H21.6652C20.9561 28.4997 20.2551 28.6503 19.6088 28.9418C18.9624 29.2332 18.3854 29.6588 17.9161 30.1903C17.4468 30.7218 17.0959 31.3471 16.8867 32.0245C16.6775 32.702 16.6147 33.4162 16.7027 34.1198L17.9527 44.1198C18.1038 45.3293 18.6915 46.4419 19.6054 47.2485C20.5192 48.0551 21.6963 48.5001 22.9152 48.4998V48.4998Z" stroke="black" stroke-width="2" stroke-linecap="round" stroke-linejoin="round"/>
<path d="M23.5 20.9998C26.2614 20.9998 28.5 18.7612 28.5 15.9998C28.5 13.2384 26.2614 10.9998 23.5 10.9998C20.7386 10.9998 18.5 13.2384 18.5 15.9998C18.5 18.7612 20.7386 20.9998 23.5 20.9998Z" stroke="black" stroke-width="2" stroke-linecap="round" stroke-linejoin="round"/>
</svg>
